src/assets/icons/ic_register.svg

<?xml version="1.0" encoding="UTF-8"?>
<svg width="24px" height="24px" viewBox="0 0 24 24" version="1.1" xmlns="http://www.w3.org/2000/svg" xmlns:xlink="http://www.w3.org/1999/xlink">
    <!-- Generator: Sketch 49 (51002) - http://www.bohemiancoding.com/sketch -->
    <title>Icon_Cadastro</title>
    <desc>Created with Sketch.</desc>
    <defs></defs>
    <g id="Dashboard-Checkout" stroke="none" stroke-width="1" fill="none" fill-rule="evenodd">
        <g id="Tela-01-Dashboard-Checkout" transform="translate(-43.000000, -209.000000)" fill="#FFFFFF">
            <g id="LateralBar" transform="translate(-7.000000, 109.000000)">
                <g id="Links">
                    <g id="Icon_Cadastro" transform="translate(50.000000, 100.000000)">
                        <path d="M15.6614225,9.30143593 L10.2169679,9.30143593 L8.78292511,8 L6.33903617,8 C6.15205027,8 6,8.1520087 6,8.3387142 L6,16.6612858 C6,16.8479913 6.15205027,17 6.33903617,17 L6.59658135,17 L7.94875087,10.0430611 L16,10.0430611 L16,9.64030298 C16.0000764,9.4536739 15.8480261,9.30143593 15.6614225,9.30143593 Z" id="Shape"></path>
                        <path d="M11.99968,0 C5.37251582,0 0,5.37288 0,11.99976 C0,18.62664 5.37251582,24 11.99968,24 C18.6268442,24 24,18.62696 24,11.99976 C24,5.37256 18.6268442,0 11.99968,0 Z M18.1793212,17.01768 C18.1359609,17.84432 17.4634764,18.50576 16.6318709,18.53064 C16.6237908,18.53104 16.6161108,18.53312 16.6077907,18.53312 L15.8693058,18.53352 L6.85164568,18.53312 C5.9697998,18.53312 5.25235502,17.8156 5.25235502,16.9336 L5.25235502,8.22144 C5.25235502,7.33944 5.9698798,6.62192 6.85212568,6.62192 L9.89014593,6.62192 L11.3908759,7.98424 L16.6077907,7.98424 C17.4896366,7.98424 18.2070814,8.70176 18.2070814,9.584 L18.2070814,10.0056 L19.6394109,10.00584 L18.1793212,17.01768 Z" id="Shape"></path>
                    </g>
                </g>
            </g>
        </g>
    </g>
</svg>

<svg xmlns="http://www.w3.org/2000/svg" viewBox="0 0 24 24"><g fill-rule="evenodd"><path d="M15.661 9.301h-5.444L8.783 8H6.339A.34.34 0 006 8.339v8.322a.34.34 0 00.339.339h.258l1.352-6.957H16V9.64a.34.34 0 00-.339-.339z"/><path d="M12 0C5.373 0 0 5.373 0 12s5.373 12 12 12 12-5.373 12-12S18.627 0 12 0zm6.18 17.018a1.6 1.6 0 01-1.548 1.513l-.024.002H6.852c-.882 0-1.6-.717-1.6-1.6V8.222c0-.882.718-1.6 1.6-1.6H9.89l1.5 1.363h5.218c.882 0 1.6.718 1.6 1.6v.422h1.431l-1.46 7.012z"/></g></svg>
